icons/arrow-box-out-bottom-right.svg

<svg xmlns="http://www.w3.org/2000/svg" width="24" height="24" viewBox="0 0 24 24">
  <path d="M12.6128994,11.2097046 L12.7071068,11.2928932 L20,18.585 L20,15 C20,14.4477153 20.4477153,14 21,14 C21.5128358,14 21.9355072,14.3860402 21.9932723,14.8833789 L22,15 L22,21 L21.9994829,21.0322546 C21.9989053,21.0502664 21.9978436,21.0682655 21.9962979,21.0862308 L22,21 C22,21.0506203 21.9962388,21.1003621 21.9889807,21.1489612 C21.9863719,21.165949 21.9832978,21.1833753 21.9797599,21.2007258 C21.9753602,21.2227461 21.9701664,21.2444365 21.964279,21.2658396 C21.9599023,21.2814633 21.9552713,21.2968513 21.9502619,21.3121425 C21.9438775,21.3317977 21.9366843,21.3515792 21.928896,21.3710585 C21.9218036,21.3887956 21.914321,21.4060985 21.9063266,21.4232215 C21.8966234,21.4438914 21.8862061,21.4642939 21.8751242,21.484277 C21.8685012,21.4963944 21.8613931,21.5086131 21.8540045,21.5207088 C21.8382813,21.546275 21.8215099,21.5711307 21.8036865,21.5951593 C21.7992821,21.6012086 21.7948255,21.6070733 21.7902954,21.6128994 C21.7381101,21.6796608 21.6796608,21.7381101 21.6148064,21.7887351 L21.7071068,21.7071068 C21.6717127,21.7425008 21.6343256,21.774687 21.5953066,21.8036654 C21.5711307,21.8215099 21.546275,21.8382813 21.5206602,21.8539326 C21.5086131,21.8613931 21.4963944,21.8685012 21.4840621,21.8753288 C21.4642939,21.8862061 21.4438914,21.8966234 21.4230991,21.9063462 C21.4060985,21.914321 21.3887956,21.9218036 21.371336,21.9287745 C21.3515792,21.9366843 21.3317977,21.9438775 21.3117364,21.9504533 C21.3053947,21.9524725 21.298628,21.9546094 21.2918437,21.9566726 L21.2708729,21.9628803 C21.2471983,21.9695267 21.2231682,21.9753235 21.1988177,21.9802356 C21.1912936,21.9816652 21.1838686,21.9830759 21.1764315,21.9844021 L21.1539846,21.9882174 C21.1416037,21.9901309 21.1291477,21.9918173 21.1166211,21.9932723 L21.0801904,21.9967993 C21.0731418,21.9973629 21.0660884,21.9978521 21.0590314,21.9982669 L21.033,21.998 L21,22 L15,22 C14.4477153,22 14,21.5522847 14,21 C14,20.4871642 14.3860402,20.0644928 14.8833789,20.0067277 L15,20 L18.585,20 L11.2928932,12.7071068 C10.9023689,12.3165825 10.9023689,11.6834175 11.2928932,11.2928932 C11.6533772,10.9324093 12.2206082,10.9046797 12.6128994,11.2097046 Z M16,2 C17.5976809,2 18.9036609,3.24891996 18.9949073,4.82372721 L19,5 L19,12.3333333 C19,12.8856181 18.5522847,13.3333333 18,13.3333333 C17.4871642,13.3333333 17.0644928,12.9472931 17.0067277,12.4499545 L17,12.3333333 L17,5 C17,4.48716416 16.6139598,4.06449284 16.1166211,4.00672773 L16,4 L6,4 C5.48716416,4 5.06449284,4.38604019 5.00672773,4.88337887 L5,5 L5,15 C5,15.5128358 5.38604019,15.9355072 5.88337887,15.9932723 L6,16 L11,16 C11.5522847,16 12,16.4477153 12,17 C12,17.5128358 11.6139598,17.9355072 11.1166211,17.9932723 L11,18 L6,18 C4.40231912,18 3.09633912,16.75108 3.00509269,15.1762728 L3,15 L3,5 C3,3.40231912 4.24891996,2.09633912 5.82372721,2.00509269 L6,2 L16,2 Z"/>
</svg>

<svg xmlns="http://www.w3.org/2000/svg" viewBox="0 0 24 24">
  <path d="m12.61 11.21.1.08L20 18.6V15a1 1 0 0 1 2-.12v6.15a1 1 0 0 1 0 .06V21a1 1 0 0 1-.39.79l.1-.08a1 1 0 0 1-.42.25h-.02a1 1 0 0 1-.1.02h-.02a1 1 0 0 1-.03.01h-.09L21 22h-6a1 1 0 0 1-.12-2h3.71l-7.3-7.3a1 1 0 0 1 1.32-1.49zM16 2a3 3 0 0 1 3 2.82v7.51a1 1 0 0 1-2 .12V5a1 1 0 0 0-.88-1H6a1 1 0 0 0-1 .88V15a1 1 0 0 0 .88 1H11a1 1 0 0 1 .12 2H6a3 3 0 0 1-3-2.82V5a3 3 0 0 1 2.82-3H16z"/>
</svg>
